X: 350
T: 351. Wenn mein St\"undlein vorhanden ist
N: Derived from chor351.krn
C: Johann Sebastian Bach
%%abc-version 2.0
%%abcx-abcm2ps-target-version 5.9.1 (29 Sep 2008)
%%abc-creator hum2abc beta
%%abcx-conversion-date 2019/03/11 17:28:19
%%abc-edited-by Craig Stuart Sapp
%%humdrum-veritas 2202537963
%%humdrum-veritas-data 1859384227
%%
%%barnumbers 0
L: 1/4
M: C
%%staves [1 2 3 4]
V: 1 clef=treble
V: 2 clef=treble
V: 3 clef=treble-8
V: 4 clef=bass
K: A
[V:1] A [I:setbarnb 1]| 
[V:2] C/D/ | 
[V:3] E | 
[V:4] A,,/B,,/ | 
[V:1] EFGA | 
[V:2] EB,B,A, | 
[V:3] AG/F/cc | 
[V:4] C,^D,^E,F, | 
[V:1] Bc!fermata!Ac/d/ | 
[V:2] =EE!fermata!DE | 
[V:3] BA/=G/!fermata!FA | 
[V:4] G,A,!fermata!=D,A,/B,/ | 
[V:1] eec/d/e | 
[V:2] EEEF | 
[V:3] ^G/A/BA/B/c | 
[V:4] C/B,/ A,/G,/A,^A, | 
[V:1] d2!fermata!cc | 
[V:2] F/^E/ F/G/!fermata!AA | 
[V:3] B/c/ d/=e/!fermata!fe | 
[V:4] B,B,,!fermata!F,A,- | 
[V:1] dcBA/B/ | 
[V:2] BAGF | 
[V:3] f/edc/ c/B/ | 
[V:4] A,/G,F,^E,/ F,/D,/ | 
[V:1] cc!fermata!Ac/d/ | 
[V:2] F3/^E/!fermata!CF | 
[V:3] AG!fermata!FA | 
[V:4] A,,/B,,/C,!fermata!F,,F, | 
[V:1] eec/d/e | 
[V:2] =E/F/GA3/A/ | 
[V:3] B/A/ B/e/e3/e/ | 
[V:4] G,/F,/E,A,C, | 
[V:1] d2!fermata!cc | 
[V:2] A/G//F//G!fermata!AA | 
[V:3] f/d/ B/e/!fermata!ee | 
[V:4] B,,E,!fermata!A,,A,- | 
[V:1] dcBA/B/ | 
[V:2] A/G/AE3/F//G// | 
[V:3] f/B/ c/d/e3/d/ | 
[V:4] A,2-A,/G,/ C/B,/ | 
[V:1] cc!fermata!AB | 
[V:2] A=G!fermata!FE | 
[V:3] ee!fermata!dB | 
[V:4] A,/A,,B,,//C,//!fermata!D,^G,, | 
[V:1] ccFG | 
[V:2] E/G/ F/E/^DE | 
[V:3] A/G/ A/c/BB | 
[V:4] A,,/E,/A,-A,/G,/ F,/E,/ | 
[V:1] A/G/F!fermata!EE | 
[V:2] F/E^D/!fermata!EB, | 
[V:3] Bc/F/!fermata!GG/A//B// | 
[V:4] ^D,/E,/ A,/B,/!fermata!E,E,/=D,/ | 
[V:1] ABc3/B//c// | 
[V:2] EEE/=D//E//F- | 
[V:3] EBA3/G//A// | 
[V:4] C,/B,,/A,,/G,,/ A,,/B,,//C,//D,- | 
[V:1] dcB2 | 
[V:2] F/G/A3/G//F//G | 
[V:3] B/B/ c/d//e// f/d/ B/e/ | 
[V:4] D,/C,//B,,// F,/E,/ D,/B,,/E, | 
[V:1] !fermata!A3 |]  
[V:2] !fermata!E3 |]  
[V:3] !fermata!c3 |]  
[V:4] !fermata!A,,3 |]  



